public/assets/images/icons/blue/pause/folder-lock-empty.svg

<svg width="16" height="16" xmlns="http://www.w3.org/2000/svg" viewBox="0 0 16 16" shape-rendering="geometricPrecision" fill="#24437c"><defs><mask id="a"><rect fill="#fff" width="100%" height="100%"/><path fill="#000" d="M13.135-1H9.585v7.956H16V-1z"/></mask></defs><g fill="#cb1800"><path d="M10.585 0h1.55v5.956h-1.55zM13.45 0H15v5.956h-1.55z"/></g><g mask="url(#a)"><path d="M7.394 4.755l-.816-1.923h-3.78l-.816 1.923H.861V14h14.278V4.755H7.394zm6.648 8.174H1.916v-7h12.125v7z"/><path d="M7.078 8.202a.932.932 0 1 1 1.863 0v.463h.57v-.463a1.502 1.502 0 1 0-3.003 0v.463h.57v-.463zm-1.057.859v2.904H10V9.061H6.021zm2.34 1.935a.35.35 0 0 1-.7 0v-.966a.35.35 0 0 1 .701 0v.966z"/></g></svg>

<?xml version="1.0"?><!DOCTYPE svg PUBLIC "-//W3C//DTD SVG 1.1//EN" "http://www.w3.org/Graphics/SVG/1.1/DTD/svg11.dtd"><svg width="16px" height="16px" xmlns="http://www.w3.org/2000/svg" viewBox="0 0 16 16" shape-rendering="geometricPrecision" fill="#24437c"><defs><mask id="pause-path"><rect fill="#fff" width="100%" height="100%"/><polygon points="13.135,-1 12.45,-1 9.585,-1 9.585,6.956 12.45,6.956 13.135,6.956 16,6.956 16,-1 " fill="#000"/></mask></defs><g fill="#cb1800"><g><rect x="10.585" width="1.55" height="5.956"/></g><g><rect x="13.45" width="1.55" height="5.956"/></g></g><g mask="url(#pause-path)"><path d="M7.394,4.755L6.578,2.832H2.798L1.982,4.755H0.861V14h14.278V4.755H7.394z M14.042,12.929H1.916v-7 h12.125V12.929z"/><g><path d="M7.078,8.202c0-0.515,0.417-0.932,0.932-0.932c0.514,0,0.931,0.416,0.931,0.932v0.463h0.57V8.202 c0-0.829-0.672-1.502-1.501-1.502c-0.829,0-1.502,0.672-1.502,1.502v0.463h0.57V8.202z M6.021,9.061v2.904H10V9.061H6.021z M8.361,10.996c0,0.193-0.156,0.349-0.349,0.349c-0.194,0-0.351-0.157-0.351-0.349V10.03c0-0.192,0.157-0.349,0.35-0.349 c0.194,0,0.351,0.157,0.351,0.349V10.996z"/></g></g></svg>
